src/extras-openmoji/people/E186.svg

<svg id="emoji" viewBox="0 0 72 72" xmlns="http://www.w3.org/2000/svg">
  <g id="grid">
    <path fill="#B3B3B3" d="M68 4V68H4V4H68ZM72 0H0V72H72V0Z"/>
    <path fill="none" stroke="#00A5FF" stroke-miterlimit="10" stroke-width="0.1" d="M12.9 11H59.1C60.2 11 61 11.9 61 12.9V59C61 60.1 60.1 60.9 59.1 60.9H12.9C11.9 61 11 60.1 11 59V12.9C11 11.8 11.9 11 12.9 11Z"/>
    <path fill="none" stroke="#00A5FF" stroke-miterlimit="10" stroke-width="0.1" d="M18.3 4H53.8C55 4 56 5 56 6.3V65.8C56 67 55 68.1 53.7 68.1H18.3C17 68 16 67 16 65.7V6.3C16 5 17 4 18.3 4Z"/>
    <path fill="none" stroke="#00A5FF" stroke-miterlimit="10" stroke-width="0.1" d="M68 18.3V53.8C68 55 67 56.1 65.7 56.1H6.3C5 56 4 55 4 53.7V18.3C4 17 5 16 6.3 16H65.8C67 16 68 17 68 18.3Z"/>
    <path fill="none" stroke="#00A5FF" stroke-miterlimit="10" stroke-width="0.1" d="M36 65C52.0163 65 65 52.0163 65 36C65 19.9837 52.0163 7 36 7C19.9837 7 7 19.9837 7 36C7 52.0163 19.9837 65 36 65Z"/>
  </g>
  <g id="skin">
    <ellipse cx="33" cy="29.5" rx="12" ry="14.5" fill="#FCEA2B"/>
  </g>
  <g id="hair">
    <path fill="#6A462F" d="M42.8 15.1C45.8 20.9 44.1 27 44.1 27C44.1 26.9 44.1 26.8 44.1 26.6C42.3 19.4 40.3 18 39.1 17.9V17.5C40.1 17 41.5 16.1 42.6 14.9L42.8 15.1Z"/>
    <path fill="#6A462F" d="M43.9 9.7C44.7 11.9 44 13.6 42.7 15C41.6 16.2 40.2 17 39.2 17.5C38.5 17.9 38 18 38 18C32.2 20.2 31.9 19.9 27.4 18C27.4 18 24 15.5 21.2 26.6C21.2 26.7 21.2 26.8 21.2 27C21.2 27 19 20.2 23.2 13.8C26.4 8.9 36.1 11.4 36.1 11.4L39.2 9L40.3 12.1L43.9 9.7Z"/>
  </g>
  <g id="color">
    <path fill="#3F3F3F" d="M14 59.1V55.1C14 50.1 19 46.1 24 46.1C30 51.1 36 51.1 42 46.1C47 46.1 52 50.1 52 55.1V59.1"/>
    <path fill="#6A462F" fill-rule="evenodd" d="M23.0477 46.1477C22.0024 46.2519 20.9711 46.524 20 46.9361V59.1H46V46.9361C45.1742 46.5856 44.3047 46.3364 43.4202 46.2056L42.5 46.6L42 54.1H24L23.5 46.6L23.0477 46.1477Z" clip-rule="evenodd"/>
    <path fill="#fff" d="M41 57.1L61 57.1L59 60.1H43L41 57.1Z"/>
    <g>
      <path fill="#fff" fill-rule="evenodd" d="M51 58.1C54.3137 58.1 57 53.6228 57 48.1H45C45 53.6228 47.6863 58.1 51 58.1Z" clip-rule="evenodd"/>
      <path fill="#fff" d="M57 48.1H58C58 47.5477 57.5523 47.1 57 47.1V48.1ZM45 48.1V47.1C44.4477 47.1 44 47.5477 44 48.1H45ZM56 48.1C56 50.7113 55.3629 53.027 54.3851 54.6565C53.3955 56.306 52.1676 57.1 51 57.1V59.1C53.1461 59.1 54.9182 57.6554 56.1001 55.6855C57.294 53.6958 58 51.0115 58 48.1H56ZM45 49.1H57V47.1H45V49.1ZM51 57.1C49.8324 57.1 48.6045 56.306 47.6149 54.6565C46.6371 53.027 46 50.7113 46 48.1H44C44 51.0115 44.706 53.6958 45.8999 55.6855C47.0818 57.6554 48.8539 59.1 51 59.1V57.1Z"/>
    </g>
  </g>
  <g id="line">
    <path fill="#000" d="M37 24.7C38.1 24.7 39 25.6 39 26.7C39 27.8 38.1 28.7 37 28.7C35.9 28.7 35 27.8 35 26.7C35 25.6 35.9 24.7 37 24.7Z"/>
    <path fill="#000" d="M36.9 34.5C37.1 35 36.9 35.6 36.4 35.8C35.3 36.4 34.1 36.6 32.9 36.6C31.7 36.6 30.6 36.3 29.5 35.8C29 35.6 28.8 35 29 34.5C29.2 34 29.8 33.8 30.3 34.1C32 35 33.7 35 35.4 34.1C36 33.8 36.6 34 36.9 34.5Z"/>
    <path fill="none" stroke="#000" stroke-linecap="round" stroke-linejoin="round" stroke-width="1.6" d="M33 32C33 32 34.2 30 36.6 32C36.9721 32.3786 37.4609 32.6208 37.9875 32.6875"/>
    <path fill="none" stroke="#000" stroke-linecap="round" stroke-linejoin="round" stroke-width="1.6" d="M32.9875 32C32.9875 32 31.7875 30 29.3875 32C29.0154 32.3786 28.5266 32.6208 28 32.6875"/>
    <path fill="#000" d="M29 24.7C30.1 24.7 31 25.6 31 26.7C31 27.8 30.1 28.7 29 28.7C27.9 28.7 27 27.8 27 26.7C27 25.6 27.9 24.7 29 24.7Z"/>
    <path fill="none" stroke="#000" stroke-linecap="round" stroke-linejoin="round" stroke-miterlimit="10" stroke-width="2" d="M21.3 27C21.3 27.4 21.3 28.4 21.2 29.4C21 32.5 21.6 35.6 23.1 38.3C23.7 39.3 24.4 40.3 25.2 41C28 43.4 30.8 43.5 32.6 43.5"/>
    <path fill="none" stroke="#000" stroke-linecap="round" stroke-linejoin="round" stroke-miterlimit="10" stroke-width="2" d="M44.2 27C44.2 27.4 44.3 28.4 44.3 29.4C44.5 32.5 43.9 35.6 42.4 38.3C41.8 39.3 41.2 40.3 40.3 41C37.5 43.4 34.8 43.5 32.9 43.5C32.8 43.5 32.7 43.5 32.6 43.5"/>
    <path fill="none" stroke="#000" stroke-linecap="round" stroke-linejoin="round" stroke-miterlimit="10" stroke-width="2" d="M21.3 27C21.3 27 19.1 20.2 23.3 13.8C26.5 8.9 36.2 11.4 36.2 11.4L39.3 9L40.4 12.1L43.8 9.6C44.6 11.8 43.9 13.5 42.6 14.9C41.5 16.1 40.1 16.9 39.1 17.4C38.4 17.8 37.9 17.9 37.9 17.9C32.1 20.1 31.8 19.8 27.3 17.9C27.3 17.9 23.9 15.4 21.1 26.5"/>
    <path fill="none" stroke="#000" stroke-linecap="round" stroke-linejoin="round" stroke-miterlimit="10" stroke-width="2" d="M39 17.9C39.1 17.9 39.1 17.9 39.2 17.9C40.4 18 42.4 19.4 44.2 26.6"/>
    <path fill="none" stroke="#000" stroke-linecap="round" stroke-linejoin="round" stroke-miterlimit="10" stroke-width="2" d="M42.8 15.1C45.8 20.9 44.1 27 44.1 27"/>
    <g>
      <path fill="none" stroke="#000" stroke-linecap="round" stroke-linejoin="round" stroke-width="2" d="M14 58V55C14 50 19 46 24 46C30 51 36 51 42 46C42.5017 46 43.0034 46.0403 43.5 46.1178"/>
      <path fill="none" stroke="#000" stroke-linejoin="round" stroke-width="2" d="M23.5 46.6L24 54.1H42L42.5 46.6"/>
      <path fill="none" stroke="#000" stroke-linecap="round" stroke-width="2" d="M20 47.1V58.1"/>
      <path fill="none" stroke="#000" stroke-linecap="round" stroke-linejoin="round" stroke-width="2" d="M46.1996 54.1C45.4463 52.4287 45 50.3512 45 48.1H57C57 50.3512 56.5537 52.4287 55.8004 54.1"/>
      <path fill="none" stroke="#000" stroke-linejoin="round" stroke-width="2" d="M41 57.1L61 57.1L59 60.1H43L41 57.1Z"/>
    </g>
  </g>
</svg>

<svg viewBox="0 0 72 72" xmlns="http://www.w3.org/2000/svg"><path fill="#B3B3B3" d="M68 4v64H4V4h64zm4-4H0v72h72V0z"/><path fill="none" stroke="#00A5FF" stroke-miterlimit="10" stroke-width=".1" d="M12.9 11h46.2c1.1 0 1.9.9 1.9 1.9V59c0 1.1-.9 1.9-1.9 1.9H12.9c-1 .1-1.9-.8-1.9-1.9V12.9c0-1.1.9-1.9 1.9-1.9z"/><path fill="none" stroke="#00A5FF" stroke-miterlimit="10" stroke-width=".1" d="M18.3 4h35.5C55 4 56 5 56 6.3v59.5c0 1.2-1 2.3-2.3 2.3H18.3C17 68 16 67 16 65.7V6.3C16 5 17 4 18.3 4z"/><path fill="none" stroke="#00A5FF" stroke-miterlimit="10" stroke-width=".1" d="M68 18.3v35.5c0 1.2-1 2.3-2.3 2.3H6.3C5 56 4 55 4 53.7V18.3C4 17 5 16 6.3 16h59.5c1.2 0 2.2 1 2.2 2.3z"/><path fill="none" stroke="#00A5FF" stroke-miterlimit="10" stroke-width=".1" d="M36 65c16.016 0 29-12.984 29-29S52.016 7 36 7 7 19.984 7 36s12.984 29 29 29z"/><g stroke-linecap="round" stroke-miterlimit="10" stroke-width="6" stroke="#fff" fill="none" stroke-linejoin="round"><path d="M37 24.7c1.1 0 2 .9 2 2s-.9 2-2 2-2-.9-2-2 .9-2 2-2zm-.1 9.8c.2.5 0 1.1-.5 1.3-1.1.6-2.3.8-3.5.8-1.2 0-2.3-.3-3.4-.8-.5-.2-.7-.8-.5-1.3.2-.5.8-.7 1.3-.4 1.7.9 3.4.9 5.1 0 .6-.3 1.2-.1 1.5.4zM33 32s1.2-2 3.6 0c.372.379.86.62 1.387.688m-5-.688s-1.2-2-3.6 0c-.372.379-.86.62-1.387.688m1-7.988c1.1 0 2 .9 2 2s-.9 2-2 2-2-.9-2-2 .9-2 2-2zM21.3 27c0 .4 0 1.4-.1 2.4-.2 3.1.4 6.2 1.9 8.9.6 1 1.3 2 2.1 2.7 2.8 2.4 5.6 2.5 7.4 2.5M44.2 27c0 .4.1 1.4.1 2.4.2 3.1-.4 6.2-1.9 8.9-.6 1-1.2 2-2.1 2.7-2.8 2.4-5.5 2.5-7.4 2.5h-.3M21.3 27s-2.2-6.8 2-13.2c3.2-4.9 12.9-2.4 12.9-2.4L39.3 9l1.1 3.1 3.4-2.5c.8 2.2.1 3.9-1.2 5.3-1.1 1.2-2.5 2-3.5 2.5-.7.4-1.2.5-1.2.5-5.8 2.2-6.1 1.9-10.6 0 0 0-3.4-2.5-6.2 8.6M39 17.9h.2c1.2.1 3.2 1.5 5 8.7m-1.4-11.5c3 5.8 1.3 11.9 1.3 11.9M14 58v-3c0-5 5-9 10-9 6 5 12 5 18 0 .502 0 1.003.04 1.5.118"/><path d="M23.5 46.6l.5 7.5h18l.5-7.5m-22.5.5v11m26.2-4c-.754-1.671-1.2-3.749-1.2-6h12c0 2.251-.446 4.329-1.2 6m-14.8 3h20l-2 3H43l-2-3z"/></g><ellipse cx="33" cy="29.5" rx="12" ry="14.5" fill="#FCEA2B"/><g fill="#6A462F"><path d="M42.8 15.1c3 5.8 1.3 11.9 1.3 11.9v-.4c-1.8-7.2-3.8-8.6-5-8.7v-.4c1-.5 2.4-1.4 3.5-2.6l.2.2z"/><path d="M43.9 9.7c.8 2.2.1 3.9-1.2 5.3-1.1 1.2-2.5 2-3.5 2.5-.7.4-1.2.5-1.2.5-5.8 2.2-6.1 1.9-10.6 0 0 0-3.4-2.5-6.2 8.6v.4s-2.2-6.8 2-13.2c3.2-4.9 12.9-2.4 12.9-2.4L39.2 9l1.1 3.1 3.6-2.4z"/></g><path fill="#3F3F3F" d="M14 59.1v-4c0-5 5-9 10-9 6 5 12 5 18 0 5 0 10 4 10 9v4"/><path fill="#6A462F" fill-rule="evenodd" d="M23.048 46.148a10.49 10.49 0 00-3.048.788V59.1h26V46.936c-.826-.35-1.695-.6-2.58-.73l-.92.394-.5 7.5H24l-.5-7.5-.452-.452z" clip-rule="evenodd"/><path fill="#fff" d="M41 57.1h20l-2 3H43l-2-3z"/><g fill="#fff"><path fill-rule="evenodd" d="M51 58.1c3.314 0 6-4.477 6-10H45c0 5.523 2.686 10 6 10z" clip-rule="evenodd"/><path d="M57 48.1h1a1 1 0 00-1-1v1zm-12 0v-1a1 1 0 00-1 1h1zm11 0c0 2.611-.637 4.927-1.615 6.556-.99 1.65-2.217 2.444-3.385 2.444v2c2.146 0 3.918-1.445 5.1-3.415 1.194-1.99 1.9-4.674 1.9-7.585h-2zm-11 1h12v-2H45v2zm6 8c-1.168 0-2.395-.794-3.385-2.444C46.637 53.028 46 50.712 46 48.1h-2c0 2.911.706 5.596 1.9 7.585 1.182 1.97 2.954 3.415 5.1 3.415v-2z"/></g><g><path d="M37 24.7c1.1 0 2 .9 2 2s-.9 2-2 2-2-.9-2-2 .9-2 2-2zm-.1 9.8c.2.5 0 1.1-.5 1.3-1.1.6-2.3.8-3.5.8-1.2 0-2.3-.3-3.4-.8-.5-.2-.7-.8-.5-1.3.2-.5.8-.7 1.3-.4 1.7.9 3.4.9 5.1 0 .6-.3 1.2-.1 1.5.4z"/><path fill="none" stroke="#000" stroke-linecap="round" stroke-linejoin="round" stroke-width="1.6" d="M33 32s1.2-2 3.6 0c.372.379.86.62 1.387.688m-5-.688s-1.2-2-3.6 0c-.372.379-.86.62-1.387.688"/><path d="M29 24.7c1.1 0 2 .9 2 2s-.9 2-2 2-2-.9-2-2 .9-2 2-2z"/><path fill="none" stroke="#000" stroke-linecap="round" stroke-linejoin="round" stroke-miterlimit="10" stroke-width="2" d="M21.3 27c0 .4 0 1.4-.1 2.4-.2 3.1.4 6.2 1.9 8.9.6 1 1.3 2 2.1 2.7 2.8 2.4 5.6 2.5 7.4 2.5M44.2 27c0 .4.1 1.4.1 2.4.2 3.1-.4 6.2-1.9 8.9-.6 1-1.2 2-2.1 2.7-2.8 2.4-5.5 2.5-7.4 2.5h-.3M21.3 27s-2.2-6.8 2-13.2c3.2-4.9 12.9-2.4 12.9-2.4L39.3 9l1.1 3.1 3.4-2.5c.8 2.2.1 3.9-1.2 5.3-1.1 1.2-2.5 2-3.5 2.5-.7.4-1.2.5-1.2.5-5.8 2.2-6.1 1.9-10.6 0 0 0-3.4-2.5-6.2 8.6M39 17.9h.2c1.2.1 3.2 1.5 5 8.7m-1.4-11.5c3 5.8 1.3 11.9 1.3 11.9"/><g fill="none" stroke="#000" stroke-width="2"><path stroke-linecap="round" stroke-linejoin="round" d="M14 58v-3c0-5 5-9 10-9 6 5 12 5 18 0 .502 0 1.003.04 1.5.118"/><path stroke-linejoin="round" d="M23.5 46.6l.5 7.5h18l.5-7.5"/><path stroke-linecap="round" d="M20 47.1v11"/><path stroke-linecap="round" stroke-linejoin="round" d="M46.2 54.1c-.754-1.671-1.2-3.749-1.2-6h12c0 2.251-.446 4.329-1.2 6"/><path stroke-linejoin="round" d="M41 57.1h20l-2 3H43l-2-3z"/></g></g></svg>
